**harm	**harte	**timestamp	**phrase	**leadinstrument	**kern
*M4/4	*M4/4	*	*	*	*
*E-:	*E-:	*	*	*	*E-:
1r;	N	0	.	r	1r;
=1	=1	=1	=1	=1	=1
*>A_chorus	*>A_chorus	*>A_chorus	*>A_chorus	*>A_chorus	*>A_chorus
1I7	E-:maj7	0.511	newline	voice	1E- 1g 1b- 1dd
=2	=2	=2	=2	=2	=2
1-iiio	G-:dim	3.918	.	voice	1G- 1b-- 1dd--
=3	=3	=3	=3	=3	=3
2ii7	F:min7	7.326	.	voice	2F 2a- 2cc 2ee-
2V	B-:sus4(b7,9)	9.03	.	voice	2B- 2dd 2ff
=4	=4	=4	=4	=4	=4
1I7	E-:maj7	10.733	.	voice	1E- 1g 1b- 1dd
=5	=5	=5	=5	=5	=5
1II7	F:7	14.141	newline	voice	1F 1a 1cc 1ee-
=6	=6	=6	=6	=6	=6
2iii7	G:min7	17.512	.	voice	2G 2b- 2dd 2ff
2vi7	C:min7	19.198	.	voice	2C 2e- 2g 2b-
=7	=7	=7	=7	=7	=7
2ii7	F:min7	20.884	.	voice	2F 2a- 2cc 2ee-
2#IM7	E:maj7	22.569	.	voice	2E 2g# 2b 2dd
=8	=8	=8	=8	=8	=8
2I7	E-:maj7	24.255	.	voice	2E- 2g 2b- 2dd
4ii7	F:min7	25.941	.	voice	4F 4a- 4cc 4ee-
4#IM7	E:maj7	26.784	.	voice	4E 4g# 4b 4dd
=9	=9	=9	=9	=9	=9
*>A_chorus	*>A_chorus	*>A_chorus	*>A_chorus	*>A_chorus	*>A_chorus
1I7	E-:maj7	27.626	newline	voice	1E- 1g 1b- 1dd
=10	=10	=10	=10	=10	=10
1-iiio	G-:dim	31.04	.	voice	1G- 1b-- 1dd--
=11	=11	=11	=11	=11	=11
2ii7	F:min7	34.454	.	voice	2F 2a- 2cc 2ee-
2V	B-:sus4(b7,9)	36.161	.	voice	2B- 2dd 2ff
=12	=12	=12	=12	=12	=12
1I7	E-:maj7	37.868	.	voice	1E- 1g 1b- 1dd
=13	=13	=13	=13	=13	=13
1II7	F:7	41.282	newline	voice	1F 1a 1cc 1ee-
=14	=14	=14	=14	=14	=14
2iii7	G:min7	44.679	.	voice	2G 2b- 2dd 2ff
2vi7	C:min7	46.377	.	voice	2C 2e- 2g 2b-
=15	=15	=15	=15	=15	=15
2ii7	F:min7	48.075	.	voice	2F 2a- 2cc 2ee-
2#IM7	E:maj7	49.773	.	voice	2E 2g# 2b 2dd
=16	=16	=16	=16	=16	=16
2I7	E-:maj7	51.471	.	voice	2E- 2g 2b- 2dd
4v7	B-:min7	53.169	.	voice	4B- 4dd- 4ff 4aa-
4Im7	E-:7	54.018	.	voice	4E- 4g 4b- 4dd
=17	=17	=17	=17	=17	=17
*>B_bridge	*>B_bridge	*>B_bridge	*>B_bridge	*>B_bridge	*>B_bridge
1IV7	A-:maj7	54.867	newline	voice	1A- 1cc 1ee- 1gg
=18	=18	=18	=18	=18	=18
2iii	G:sus4(b7)	58.339	.	voice	2G 2b- 2dd
2VI7	C:7(b9)	60.075	.	voice	2C 2e 2g 2b-
=19	=19	=19	=19	=19	=19
2ii7	F:min7	61.811	.	voice	2F 2a- 2cc 2ee-
2V7	B-:7(b9)	63.547	.	voice	2B- 2dd 2ff 2aa-
=20	=20	=20	=20	=20	=20
1Im7	E-:7	65.283	.	voice	1E- 1g 1b- 1dd
=21	=21	=21	=21	=21	=21
1IV7	A-:maj7	68.754	newline	voice	1A- 1cc 1ee- 1gg
=22	=22	=22	=22	=22	=22
2iii	G:sus4(b7)	72.208	.	voice	2G 2b- 2dd
2III7	G:7	73.935	.	voice	2G 2b 2dd 2ff
=23	=23	=23	=23	=23	=23
2vi7	C:min7	75.662	.	voice	2C 2e- 2g 2b-
2II7	F:7	77.389	.	voice	2F 2a 2cc 2ee-
=24	=24	=24	=24	=24	=24
4ii7	F:min7	79.116	.	voice	4F 4a- 4cc 4ee-
4V7	B-:7	79.98	.	voice	4B- 4dd 4ff 4aa-
*E:	*E:	*	*	*	*E:
4ii7	F#:min7	80.843	.	voice	4F# 4a 4cc# 4ee
4V7	B:7	81.707	.	voice	4B 4dd# 4ff# 4aa
=25	=25	=25	=25	=25	=25
*>A2_chorus	*>A2_chorus	*>A2_chorus	*>A2_chorus	*>A2_chorus	*>A2_chorus
1I7	E:maj7	82.57	newline	voice	1E 1g# 1b 1dd#
=26	=26	=26	=26	=26	=26
1-iiio	G:dim	86.007	.	voice	1G 1b- 1dd-
=27	=27	=27	=27	=27	=27
2ii7	F#:min7	89.443	.	voice	2F# 2a 2cc# 2ee
2V	B:sus4(b7,9)	91.162	.	voice	2B 2dd# 2ff#
=28	=28	=28	=28	=28	=28
1I7	E:maj7	92.88	.	voice	1E 1g# 1b 1dd#
=29	=29	=29	=29	=29	=29
2II7	F#:7	96.316	newline	voice	2F# 2a# 2cc# 2ee
2II7e	F#:7/b2	98.09	.	voice	2F# 2a# 2cc# 2ee
=30	=30	=30	=30	=30	=30
1Ib	E:maj/3	99.863	.	voice	1e 1G# 1b
=31	=31	=31	=31	=31	=31
1ii7	F#:min7(11)	103.41	.	voice	1F# 1a 1cc# 1ee
=32	=32	=32	=32	=32	=32
1iii7	G#:min7(11)	106.957	.	voice	1G# 1b 1dd# 1ff#
=33	=33	=33	=33	=33	=33
1ii7	F#:min7	110.504	newline	voice	1F# 1a 1cc# 1ee
=34	=34	=34	=34	=34	=34
1ii7	F#:min7	113.642	.	voice	1F# 1a 1cc# 1ee
=35	=35	=35	=35	=35	=35
1V7	B:7(b9)	116.78	.	voice	1B 1dd# 1ff# 1aa
=36	=36	=36	=36	=36	=36
1V7	B:7(b9)	119.918	.	voice	1B 1dd# 1ff# 1aa
=37	=37	=37	=37	=37	=37
1I7	E:maj9	123.056	.	voice	1E 1g# 1b 1dd#
=38	=38	=38	=38	=38	=38
1I7	E:maj9	126.194	.	voice	1E 1g# 1b 1dd#
=39	=39	=39	=39	=39	=39
1I7	E:maj9	129.332	.	voice	1E 1g# 1b 1dd#
1r;	N	132.47	.	r	1r;
1r;	N	136.098	.	r	1r;
*-	*-	*-	*-	*-	*-
!!!OTL: Where Are You
!!!COC: Dinah Washington
!!!BillboardChartDate: 1962/06/23, 1962/06/16
!!!BillboardPeak: 36, 36
!!!BillboardWeeksOnChart: 10, 10
!!!SampleTargetRank: 34, 46
!!!SampleActualRank: 36, 46
!!!SampleID#: 722, 1099
!!!RDF**harmony: **recip + pitch class of root + harmonic quality
!!!RDF**harte: Chris Harte's syntax, used by MIREX
!!!RDF**phrase: newline = linebreak in original McGill transcription
!!!RDF**timestamp: McGill audio timestamp in seconds
!!!RDF**leadinstrument: original McGill primary instrumentation annotation
!!!RDT: 2017/01/12/
!!!ENC: Nathaniel Condit-Schultz
!!!EST: Awating manual error checking and editing.
